X:7435
T:the Ulverston Volunteers
O:england
M:6/8
A:North-West
R:Jig
K:G
d|\
BGG dGG| e2f g2e| dGG eGG| FAA A2d|\
BGG dGG| e2f gfe| dBG AGA| BGG G2::
d|\
g2d B2G| efg dBG| ceB BdA| AGA A2d|\
BGG dGG| e2f gfe| dBG AGA| BGG G2:|


